icons/_assets/kanban.svg

<svg width="100" height="100" xmlns="http://www.w3.org/2000/svg"><path d="M73.976835,11.4705724 L87.2482155,9.95811448 L87.2482155,20.5587879 L73.976835,22.0712458 L73.976835,11.4705724 Z M73.976835,52.7608081 L73.976835,42.1601347 L87.2482155,40.6490236 L87.2482155,51.2483502 L73.976835,52.7608081 Z M91.1741414,5.55946128 C90.6717845,5.11232323 90.0091582,4.90356902 89.3371044,4.9762963 L71.353266,7.02478114 C70.1626936,7.16080808 69.2630303,8.16821549 69.2630303,9.36686869 L69.2630303,24.7123232 L69.2630303,40.056431 L69.2630303,55.4018855 L69.2630303,70.7459933 C69.2630303,71.4180471 69.549899,72.0577778 70.0509091,72.5049158 C70.4845791,72.8914478 71.0435017,73.1028956 71.6199327,73.1028956 C71.7074747,73.1028956 71.7977104,73.0975084 71.8865993,73.0880808 L89.8717845,71.0382492 C91.0623569,70.903569 91.9620202,69.8948148 91.9620202,68.6975084 L91.9620202,53.3520539 L91.9620202,38.0079461 L91.9620202,22.6624916 L91.9620202,7.31838384 C91.9620202,6.64632997 91.6751515,6.00659933 91.1741414,5.55946128 L91.1741414,5.55946128 Z M56.8078114,54.7163636 L43.536431,56.2288215 L43.536431,45.6281481 L56.8078114,44.117037 L56.8078114,54.7163636 Z M43.536431,14.9385859 L56.8078114,13.4274747 L56.8078114,24.0268013 L43.536431,25.5392593 L43.536431,14.9385859 Z M58.8980471,8.44430976 L40.912862,10.4927946 C39.7222896,10.6288215 38.8226263,11.6375758 38.8226263,12.8348822 L38.8226263,28.1803367 L38.8226263,43.5244444 L38.8226263,58.869899 C38.8226263,59.5406061 39.1094949,60.1803367 39.6105051,60.6288215 C40.0455219,61.0153535 40.6044444,61.2268013 41.1795286,61.2268013 C41.2684175,61.2268013 41.3573064,61.2214141 41.4475421,61.2119865 L59.4313805,59.1621549 C60.6219529,59.0274747 61.5216162,58.0187205 61.5216162,56.8200673 L61.5216162,41.4759596 L61.5216162,26.1305051 L61.5216162,10.7863973 C61.5216162,10.1143434 61.2347475,9.47461279 60.7337374,9.02747475 C60.2340741,8.5803367 59.5714478,8.36754209 58.8980471,8.44430976 L58.8980471,8.44430976 Z M26.3674074,88.8752862 L13.0973737,90.3863973 L13.0973737,79.7870707 L26.3674074,78.2746128 L26.3674074,88.8752862 Z M13.0973737,18.4065993 L26.3674074,16.8954882 L26.3674074,27.4948148 L13.0973737,29.0072727 L13.0973737,18.4065993 Z M13.0973737,44.3527273 L13.0973737,33.7520539 L26.3674074,32.239596 L26.3674074,42.8402694 L13.0973737,44.3527273 Z M13.0973737,59.696835 L13.0973737,49.0961616 L26.3674074,47.5850505 L26.3674074,58.1857239 L13.0973737,59.696835 Z M28.4576431,11.9123232 L10.4738047,13.9621549 C9.28323232,14.096835 8.38356902,15.1055892 8.38356902,16.3028956 L8.38356902,31.6483502 L8.38356902,46.9924579 L8.38356902,62.3379125 L8.38356902,77.683367 L8.38356902,93.0274747 C8.38356902,93.6995286 8.67043771,94.3392593 9.17144781,94.7863973 C9.60511785,95.1729293 10.1640404,95.3843771 10.7404714,95.3843771 C10.8280135,95.3843771 10.9182492,95.3789899 11.007138,95.3695623 L28.9923232,93.3197306 C30.1815488,93.1850505 31.0812121,92.1762963 31.0812121,90.9789899 L31.0812121,75.6335354 L31.0812121,60.2894276 L31.0812121,44.9439731 L31.0812121,29.5985185 L31.0812121,14.2544108 C31.0812121,13.5823569 30.7943434,12.9426263 30.2933333,12.4954882 C29.7923232,12.049697 29.1323906,11.8369024 28.4576431,11.9123232 L28.4576431,11.9123232 Z" fill="#134B45" fill-rule="evenodd"/></svg>

<svg width="100" height="100" xmlns="http://www.w3.org/2000/svg"><path d="m73.977 11.47 13.271-1.512v10.6l-13.271 1.513v-10.6zm0 41.29v-10.6l13.271-1.511v10.6L73.977 52.76zm17.197-47.2a2.367 2.367 0 0 0-1.837-.584L71.353 7.025a2.358 2.358 0 0 0-2.09 2.342v61.379a2.358 2.358 0 0 0 2.624 2.342l17.985-2.05a2.356 2.356 0 0 0 2.09-2.34V7.318a2.36 2.36 0 0 0-.788-1.759zM56.808 54.715 43.536 56.23v-10.6l13.272-1.512v10.6zM43.536 14.94l13.272-1.512v10.6L43.536 25.54v-10.6zm15.362-6.495-17.985 2.049a2.359 2.359 0 0 0-2.09 2.342V58.87c0 .67.286 1.31.788 1.759a2.363 2.363 0 0 0 1.837.583l17.983-2.05a2.357 2.357 0 0 0 2.09-2.342V10.786a2.358 2.358 0 0 0-2.623-2.342zm-32.53 80.431-13.27 1.511v-10.6l13.27-1.512v10.6zm-13.27-70.468 13.27-1.512v10.6l-13.27 1.512v-10.6zm0 25.946v-10.6l13.27-1.513v10.6l-13.27 1.513zm0 15.344v-10.6l13.27-1.512v10.6l-13.27 1.512zm15.36-47.785-17.984 2.05a2.356 2.356 0 0 0-2.09 2.34v76.725a2.358 2.358 0 0 0 2.623 2.343l17.985-2.05a2.356 2.356 0 0 0 2.09-2.341V14.254a2.358 2.358 0 0 0-2.624-2.342z" fill="#134B45" fill-rule="evenodd"/></svg>
